X: 577
T: Dilrubâmız Nâzına Vermişti
C: Ahmet Avni Konuk
O: Turkey
F: http://compmusic.upf.edu/node/140
N: tarzinevin--kupe--devrirevanihindi--dilrubamiz--ahmet_avni_konuk
N: makam= tarzinevin
N: form= kupe
N: usul= devrirevanihindi = 14/8
M: 14/8
L: 1/16
K: C _B _7/8d  
Q: 1/4=102
%%MIDI tuningsystem comma53
f4 g2g2 _a2g2 f2_7/8b2 a2g2 gffe f4  | \
w:  Dil ru bâ *  *  *  mız   | 
f4 _7/8a2g2 f2e2 _3/4d2e2 f2fe ed{e}dc c4  | 
w:  nâ zı na  *  *  *  ver  | 
c_3/4dc2 _7/8d2e2 _3/4def4g2 _a2_1/4b2 c'2c'b _7/8agf2  | \
w:  miş *  *  di  bir  *  *  *  Tarz_  | 
g_7/8aga gf_1/4b2 aggf fef2 e2{a}gf f6z2  | 
w:  ı  *  *  *  *  *  *  *  *  Ne *  *  *  vîn    | 
f4 g2_7/8ag fedc B2c2 d2e2 fede f4  | \
w:  Â şı kın  *  *  *  *  *  *  sab  | 
c4 B2c2 cdfe dcc2 d2dc cBAB c2z2  | 
w:  rı  tü ken *  *  *  *  *  *  di   | 
cdc2 B2B2 c2B2 _A2A2 B2A2 G2AG G2F2  | \
w:  ey *  *  le di  *  *  *  âh_  | 
G2_A2 A2A2 AGF2 G2F2 G2AG G6z2  | 
w:  ü  *  *  *  *  *  e *  nîn    | 
|


